X:1
T:Dindirín, dindirín
T:Dindirín, dindirín
T:Anónimo Cancionero de Palacio no 359 
C:Anónimo
%%score [ 1 2 3 4 ]
L:1/8
M:3/4
K:C
V:1 treble nm="tiple\n"
V:2 treble nm="tenor"
V:3 treble-8 nm="1. contra"
V:4 bass nm="2. contra"
V:1
"^\n" F2 F2 F2 | E2 E2 F2 | G2 G2 F2 | E4 F2 | G2 E2 E2 |"^Fin" !fermata!D6 ||[M:4/4] d2 d2 | %7
w: Din- di- rín,|din- di- rín,|din- di- rín|da- ña,|din- di- rín|din.|1. Ju me|
w: ||||||2. En- con-|
w: ||||||3. Ruy- se-|
 A2 A2 A2 A2 | G4 E2 E2 | F2 F2 E2 E2 | F2 A2 G4 | F4 |[M:3/4] F4 F2 | F4 F2 | F4 F2 | F6 | E4 F2 | %17
w: le- ve un bel mai-|tín, ma- ti-|ne- ta per la|pra- * *|ta;|En- con-|tré le|ruy- se-|ñor|que can-|
w: tré le ruy- se-|ñor que can-|ta- va so la|ra- * *|ma,|ruy- se-|ñor, le|ruy- se-|ñor,|fác- te-|
w: ñor, le ruy- se-|ñor, fác- te-|me a- ques- ta em- ba-|xa- * *|ta,|y di-|gao- lo a|mon a-|mi,|que ju|
 G4 G2 | G4 F2 | E4 F2 | G2 E2 E2 |"^D. C." D6 |] %22
w: ta- va|so la|ra- ma,|din- di- rín|din.|
w: me a- ques-|ta em- ba-|xa- ta,|din- di- rín|din.|
w: ja so|ma- ri-|ta- ta,|din- di- rín|din.|
V:2
 D2 D2 D2 | C2 C2 D2 | E2 E2 D2 | !courtesy!^C4 D2 | B,2 !courtesy!^C2 C2 | !fermata!D6 || %6
w: Din- di- rín,|din- di- rín,|din- di- rín|da- ña,|din- di- rín|din.|
w: ||||||
w: ||||||
[M:4/4] D2 D2 | F2 F2 F2 F2 | G4 G2 G2 | A2 A2 G2 G2 | F3 D E4 | F4 |[M:3/4] D4 D2 | D4 D2 | %14
w: 1. Ju me|le- ve un bel mai-|tín, ma- ti-|ne- ta per la|pra- * *|ta;|En- con-|tré le|
w: 2. En- con-|tré le ruy- se-|ñor que can-|ta- va so la|ra- * *|ma,|ruy- se-|ñor, le|
w: 3. Ruy- se-|ñor, le ruy- se-|ñor, fác- te-|me a- ques- ta em- ba-|xa- * *|ta,|y di-|gao- lo a|
 D4 D2 | D6 | C4 D2 | E4 E2 | E4 D2 | !courtesy!^C4 D2 | B,2 !courtesy!^C2 C2 | D6 |] %22
w: ruy- se-|ñor|que can-|ta- va|so la|ra- ma,|din- di- rín|din.|
w: ruy- se-|ñor,|fác- te-|me a- ques-|ta em- ba-|xa- ta,|din- di- rín|din.|
w: mon a-|mi,|que ju|ja so|ma- ri-|ta- ta,|din- di- rín|din.|
V:3
 A2 A2 A2 | A2 A2 A2 | c2 c2 A2 | A4 A2 | G2 A2 A2 | !fermata!A6 ||[M:4/4] A2 A2 | d2 d2 d2 d2 | %8
w: Din- di- rín,|din- di- rín,|din- di- rín|da- ña,|din- di- rín|din.|1. Ju me|le- ve un bel mai-|
w: ||||||2. En- con-|tré le ruy- se-|
w: ||||||3. Ruy- se-|ñor, le ruy- se-|
 d4 c2 c2 | c2 c2 c2 c2 | c8 | c4 |[M:3/4] _B4 B2 | !courtesy!_B4 B2 | !courtesy!_B4 B2 | A6 | %16
w: tín, ma- ti-|ne- ta per la|pra|ta;|En- con-|tré le|ruy- se-|ñor|
w: ñor que can-|ta- va so la|ra|ma,|ruy- se-|ñor, le|ruy- se-|ñor,|
w: ñor, fác- te-|me a- ques- ta em- ba-|xa-|ta,|y di-|gao- lo a|mon a-|mi,|
 A4 A2 | c4 c2 | c4 A2 | A4 A2 | G2 A2 A2 | A6 |] %22
w: que can-|ta- va|so la|ra- ma,|din- di- rín|din.|
w: fác- te-|me a- ques-|ta em- ba-|xa- ta,|din- di- rín|din.|
w: que ju|ja so|ma- ri-|ta- ta,|din- di- rín|din.|
V:4
 D,2 D,2 D,2 | A,,2 A,,2 D,2 | C,2 C,2 D,2 | A,,4 D,2 | E,2 A,,2 A,,2 | !fermata!D,6 || %6
w: Din- di- rín,|din- di rín,|din- di- rín|da- ña,|din- di- rín|din.|
w: ||||||
w: ||||||
[M:4/4] D,2 D,2 | D,2 D,2 D,2 D,2 | G,4 C,2 C,2 | F,2 F,2 C,2 C,2 | F,4 C,4 | F,4 | %12
w: 1. Ju me|le- ve un bel mai-|tín, ma- ti-|ne- ta per la|pra- *|ta;|
w: 2. En- con-|tré le ruy- se-|ñor que can-|ta- va so la|ra- *|ma,|
w: 3. Ruy- se-|ñor, le ruy- se-|ñor, fác- te-|me a- ques- ta em- ba-|xa- *|ta,|
[M:3/4] _B,,4 B,,2 | !courtesy!_B,,4 B,,2 | !courtesy!_B,,4 B,,2 | D,6 | A,,4 D,2 | C,4 C,2 | %18
w: En- con-|tré le|ruy- se-|ñor|que can-|ta- va|
w: ruy- se-|ñor, le|ruy- se-|ñor,|fác- te-|me a- ques-|
w: y di-|gao- lo a|mon a-|mi,|que ju|ja so|
 C,4 D,2 | A,,4 D,2 | E,2 A,,2 A,,2 | D,6 |] %22
w: so la|ra- ma,|din- di- rín|din.|
w: ta em- ba-|xa- ta,|din- di- rín|din.|
w: ma- ri-|ta- ta,|din- di- rín|din.|

